X: 33
M:6/8
L:1/8
K:D
ua|\
ged cA(G | F)DE FDE | F>ED d>ef | {a}g>fg e>ag |
fed cAG | cAG FDE | DFA dag | fdd d2:|
|:u(f/g/)|\
ka3  dfa- | agb afd | g>gg- g>ef | ged c>AG |


